!!!OTL: WUNDERSCHOEN PRAECHTIGE HOEHE UND MAECHTIGE
!!!ARE: Europa, Mitteleuropa, Deutschland
!!!SCT: E2082
!!!YEM: Copyright 1995, estate of Helmut Schaffrath.
**kern
*ICvox
*Ivox
*M3/4
*k[b-]
*F:
=1
{4f
4f
4f
=2
4.f
8g
4f
=3
4a
4a
4a
=4
4.a
8b-
4a}
=5
{4cc
4ff
4cc
=6
4.cc
8b-
4a
=7
8g
8a
4b-
4a
=8
2g
4r}
=9
{4f
4f
4f
=10
4.f
8g
4f
=11
4a
4a
4a
=12
4.a
8b-
4a}
=13
{4cc
4ff
4cc
=14
4.cc
8b-
4a
=15
8g
8a
4b-
4a
=16
2g
4r}
=17
{4cc
4a
4cc
=18
4cc
8b-
8a
4b-
=19
4b-
4g
4b-
=20
4b-
8a
8g
4a}
=21
{4f
4c
4f
=22
4a
4f
4a
=23
4cc
4a
4cc
=24
2ff
4r}
=25
{4ff
4ee
4dd
=26
4.cc
8b-
4a
=27
8cc
8b-
4a
4g
=28
2.f}
==
!!!AGN: geistlich, Marien - Lied
!!!ONB: ESAC (Essen Associative Code) Database: ERK3
!!!AMT: simple triple
!!!AIN: vox
!!!EED: Helmut Schaffrath
!!!EEV: 1.0
*-
